img/logo.svg

<svg width="112" height="33" viewBox="0 0 112 33" fill="none" xmlns="http://www.w3.org/2000/svg">
<path d="M48.75 3.36364H51.8636L50.5455 11.3409C50.4167 12.0985 50.1174 12.7652 49.6477 13.3409C49.178 13.9129 48.5852 14.3598 47.8693 14.6818C47.1534 15 46.3636 15.1591 45.5 15.1591C44.7576 15.1591 44.0985 15.0303 43.5227 14.7727C42.9508 14.5114 42.5265 14.1023 42.25 13.5455C41.9773 12.9848 41.9167 12.2576 42.0682 11.3636H45.2273C45.1894 11.6591 45.197 11.9072 45.25 12.108C45.303 12.3049 45.4015 12.4545 45.5455 12.5568C45.6894 12.6553 45.8788 12.7045 46.1136 12.7045C46.3485 12.7045 46.5549 12.6534 46.733 12.5511C46.911 12.4451 47.0587 12.2917 47.1761 12.0909C47.2936 11.8864 47.3788 11.6364 47.4318 11.3409L48.75 3.36364ZM53.8835 15.1364C53.3305 15.1364 52.8551 15.0455 52.4574 14.8636C52.0634 14.678 51.7756 14.3977 51.5938 14.0227C51.4157 13.6439 51.3759 13.1667 51.4744 12.5909C51.554 12.1136 51.7036 11.7064 51.9233 11.3693C52.143 11.0322 52.4157 10.7557 52.7415 10.5398C53.0672 10.3239 53.4328 10.1591 53.8381 10.0455C54.2472 9.92803 54.679 9.85227 55.1335 9.81818C55.6259 9.7803 56.0256 9.73295 56.3324 9.67614C56.6392 9.61932 56.8684 9.54167 57.0199 9.44318C57.1714 9.3447 57.2623 9.21212 57.2926 9.04545V9.02273C57.3267 8.79545 57.2661 8.62121 57.1108 8.5C56.9593 8.37879 56.7472 8.31818 56.4744 8.31818C56.179 8.31818 55.9233 8.38258 55.7074 8.51136C55.4953 8.64015 55.3494 8.84091 55.2699 9.11364H52.3835C52.5047 8.58333 52.7528 8.0947 53.1278 7.64773C53.5066 7.19697 54.0085 6.83712 54.6335 6.56818C55.2623 6.29545 56.0123 6.15909 56.8835 6.15909C57.5047 6.15909 58.0502 6.23295 58.5199 6.38068C58.9896 6.52462 59.3778 6.72727 59.6847 6.98864C59.9953 7.24621 60.2131 7.54924 60.3381 7.89773C60.4669 8.24242 60.4972 8.61742 60.429 9.02273L59.429 15H56.4972L56.7017 13.7727H56.6335C56.4063 14.0985 56.1506 14.3617 55.8665 14.5625C55.5862 14.7633 55.2794 14.9091 54.946 15C54.6165 15.0909 54.2623 15.1364 53.8835 15.1364ZM55.2472 13.1591C55.482 13.1591 55.7131 13.1098 55.9403 13.0114C56.1676 12.9129 56.3627 12.7708 56.5256 12.5852C56.6884 12.3996 56.7926 12.1742 56.8381 11.9091L56.9517 11.1818C56.8684 11.2159 56.7756 11.2481 56.6733 11.2784C56.5748 11.3049 56.4706 11.3314 56.3608 11.358C56.2547 11.3845 56.1411 11.4091 56.0199 11.4318C55.9025 11.4545 55.7812 11.4773 55.6562 11.5C55.4062 11.5379 55.196 11.6004 55.0256 11.6875C54.8551 11.7708 54.7225 11.875 54.6278 12C54.5331 12.1212 54.4744 12.2576 54.4517 12.4091C54.4176 12.6477 54.4725 12.8333 54.6165 12.9659C54.7642 13.0947 54.9744 13.1591 55.2472 13.1591ZM60.9276 15L62.3821 6.27273H65.4276L65.1548 7.93182H65.2457C65.5071 7.31818 65.8348 6.86932 66.2287 6.58523C66.6226 6.30114 67.0526 6.15909 67.5185 6.15909C67.6548 6.15909 67.7855 6.17045 67.9105 6.19318C68.0393 6.21212 68.1662 6.23864 68.2912 6.27273L67.8366 8.95455C67.6889 8.89773 67.5052 8.85795 67.2855 8.83523C67.0658 8.80871 66.8707 8.79545 66.7003 8.79545C66.3973 8.79545 66.1132 8.86553 65.848 9.00568C65.5866 9.14205 65.3632 9.33523 65.1776 9.58523C64.9957 9.83144 64.8745 10.1212 64.8139 10.4545L64.0639 15H60.9276ZM75.2344 15.1591C74.2874 15.1591 73.5071 14.9716 72.8935 14.5966C72.2836 14.2178 71.8556 13.6913 71.6094 13.017C71.3632 12.339 71.3139 11.553 71.4616 10.6591C71.6094 9.76515 71.9181 8.98106 72.3878 8.30682C72.8575 7.62879 73.4616 7.10227 74.2003 6.72727C74.9389 6.34848 75.7836 6.15909 76.7344 6.15909C77.6776 6.15909 78.4541 6.34848 79.0639 6.72727C79.6776 7.10227 80.1075 7.62879 80.3537 8.30682C80.6037 8.98106 80.6548 9.76515 80.5071 10.6591C80.3594 11.553 80.0488 12.339 79.5753 13.017C79.1018 13.6913 78.4957 14.2178 77.7571 14.5966C77.0223 14.9716 76.1813 15.1591 75.2344 15.1591ZM75.6207 12.8409C75.8935 12.8409 76.1416 12.7519 76.3651 12.5739C76.5923 12.3958 76.7855 12.142 76.9446 11.8125C77.1075 11.483 77.2268 11.0909 77.3026 10.6364C77.3783 10.178 77.3897 9.78598 77.3366 9.46023C77.2836 9.13068 77.1738 8.87689 77.0071 8.69886C76.8404 8.52083 76.6207 8.43182 76.348 8.43182C76.0753 8.43182 75.8253 8.52083 75.598 8.69886C75.3707 8.87689 75.1776 9.13068 75.0185 9.46023C74.8594 9.78598 74.742 10.178 74.6662 10.6364C74.5904 11.0909 74.5772 11.483 74.6264 11.8125C74.6795 12.142 74.7893 12.3958 74.956 12.5739C75.1264 12.7519 75.348 12.8409 75.6207 12.8409ZM87.7457 6.27273L87.3594 8.54545H81.5185L81.9048 6.27273H87.7457ZM81.5526 15L83.0526 6.02273C83.17 5.30303 83.3954 4.70644 83.7287 4.23295C84.0658 3.75947 84.4882 3.4053 84.9957 3.17045C85.5071 2.93561 86.0791 2.81818 86.7116 2.81818C87.1132 2.81818 87.4976 2.84848 87.8651 2.90909C88.2325 2.9697 88.4995 3.02273 88.6662 3.06818L87.848 5.31818C87.7382 5.28409 87.6113 5.25758 87.4673 5.23864C87.3234 5.21591 87.1927 5.20455 87.0753 5.20455C86.7836 5.20455 86.5753 5.26705 86.4503 5.39205C86.3291 5.51705 86.2495 5.68182 86.2116 5.88636L84.6889 15H81.5526ZM64.6648 20.2727L64.2784 22.5455H58.5284L58.9148 20.2727H64.6648ZM60.3693 18.1818H63.5057L62.1761 26.1932C62.1572 26.3144 62.161 26.4167 62.1875 26.5C62.214 26.5795 62.267 26.6402 62.3466 26.6818C62.4299 26.7197 62.5398 26.7386 62.6761 26.7386C62.767 26.7386 62.8788 26.7273 63.0114 26.7045C63.1439 26.678 63.2443 26.6591 63.3125 26.6477L63.4034 28.8523C63.2443 28.8977 63.0303 28.9489 62.7614 29.0057C62.4962 29.0663 62.1875 29.1061 61.8352 29.125C61.1004 29.1591 60.5019 29.0814 60.0398 28.892C59.5814 28.7027 59.2633 28.4072 59.0852 28.0057C58.911 27.6004 58.8807 27.0947 58.9943 26.4886L60.3693 18.1818ZM68.6548 24.0909L67.8366 29H64.7003L66.6321 17.3636H69.6548L68.9048 21.9318H68.9957C69.2798 21.375 69.6776 20.9413 70.1889 20.6307C70.7003 20.3163 71.2798 20.1591 71.9276 20.1591C72.5412 20.1591 73.0526 20.2992 73.4616 20.5795C73.8707 20.8598 74.1605 21.2462 74.331 21.7386C74.5014 22.2311 74.5336 22.7955 74.4276 23.4318L73.4957 29H70.3594L71.1776 24.0909C71.2457 23.6591 71.1908 23.3201 71.0128 23.0739C70.8385 22.8277 70.5526 22.7045 70.1548 22.7045C69.8973 22.7045 69.6624 22.7614 69.4503 22.875C69.242 22.9848 69.0677 23.1439 68.9276 23.3523C68.7912 23.5568 68.7003 23.803 68.6548 24.0909ZM75.0213 29L76.4759 20.2727H79.6122L78.1577 29H75.0213ZM78.1804 19.3636C77.7562 19.3636 77.4134 19.2235 77.152 18.9432C76.8906 18.6591 76.794 18.322 76.8622 17.9318C76.9304 17.5341 77.1387 17.197 77.4872 16.9205C77.8357 16.6402 78.2221 16.5 78.6463 16.5C79.0743 16.5 79.4152 16.6402 79.669 16.9205C79.9228 17.197 80.0175 17.5341 79.9531 17.9318C79.8925 18.322 79.688 18.6591 79.3395 18.9432C78.9948 19.2235 78.6084 19.3636 78.1804 19.3636ZM83.733 24.0909L82.9148 29H79.7784L81.233 20.2727H84.2102L83.9375 21.9318H84.0284C84.3049 21.375 84.7083 20.9413 85.2386 20.6307C85.7727 20.3163 86.3617 20.1591 87.0057 20.1591C87.6231 20.1591 88.1364 20.2992 88.5455 20.5795C88.9545 20.8598 89.2443 21.2462 89.4148 21.7386C89.5852 22.2311 89.6155 22.7955 89.5057 23.4318L88.5739 29H85.4375L86.2557 24.0909C86.3277 23.6591 86.2746 23.3201 86.0966 23.0739C85.9223 22.8277 85.6345 22.7045 85.233 22.7045C84.9792 22.7045 84.7462 22.7614 84.5341 22.875C84.3258 22.9848 84.1515 23.1439 84.0114 23.3523C83.875 23.5568 83.7822 23.803 83.733 24.0909ZM93.7585 32.4545C92.8797 32.4545 92.1487 32.3295 91.5653 32.0795C90.9858 31.8333 90.5578 31.4924 90.2812 31.0568C90.0085 30.625 89.8949 30.1288 89.9403 29.5682H92.9631C92.9706 29.7576 93.0256 29.9091 93.1278 30.0227C93.2301 30.1364 93.3722 30.2178 93.554 30.267C93.7358 30.3163 93.9479 30.3409 94.1903 30.3409C94.5994 30.3409 94.9536 30.2405 95.2528 30.0398C95.5521 29.8428 95.7358 29.4886 95.804 28.9773L96.054 27.5H95.9631C95.804 27.7955 95.59 28.0473 95.321 28.2557C95.0521 28.4602 94.7434 28.6174 94.3949 28.7273C94.0464 28.8333 93.6752 28.8864 93.2812 28.8864C92.66 28.8864 92.1127 28.7424 91.6392 28.4545C91.1695 28.1667 90.8286 27.7102 90.6165 27.0852C90.4081 26.4602 90.3873 25.6439 90.554 24.6364C90.7282 23.5833 91.035 22.7273 91.4744 22.0682C91.9138 21.4091 92.4195 20.9261 92.9915 20.6193C93.5634 20.3125 94.1373 20.1591 94.7131 20.1591C95.1449 20.1591 95.5104 20.2348 95.8097 20.3864C96.1089 20.5341 96.3475 20.733 96.5256 20.983C96.7036 21.2292 96.8267 21.5 96.8949 21.7955H96.9631L97.2131 20.2727H100.349L98.8949 28.9773C98.7813 29.7197 98.4915 30.3485 98.0256 30.8636C97.5634 31.3826 96.965 31.7765 96.2301 32.0455C95.4991 32.3182 94.6752 32.4545 93.7585 32.4545ZM94.804 26.6591C95.0919 26.6591 95.3532 26.5795 95.5881 26.4205C95.8229 26.2576 96.0218 26.0265 96.1847 25.7273C96.3475 25.4242 96.4631 25.0606 96.5312 24.6364C96.5994 24.2045 96.6032 23.8352 96.5426 23.5284C96.482 23.2178 96.3627 22.9811 96.1847 22.8182C96.0066 22.6515 95.7737 22.5682 95.4858 22.5682C95.1979 22.5682 94.9384 22.6515 94.7074 22.8182C94.4763 22.9811 94.2812 23.2178 94.1222 23.5284C93.9631 23.8352 93.8494 24.2045 93.7812 24.6364C93.7131 25.0682 93.7074 25.4356 93.7642 25.7386C93.821 26.0379 93.9366 26.267 94.1108 26.4261C94.285 26.5814 94.5161 26.6591 94.804 26.6591ZM109.422 23.1136H106.604C106.619 22.9318 106.587 22.7765 106.507 22.6477C106.428 22.5189 106.316 22.4205 106.172 22.3523C106.032 22.2841 105.873 22.25 105.695 22.25C105.384 22.25 105.102 22.3201 104.848 22.4602C104.594 22.5966 104.452 22.7765 104.422 23C104.403 23.0871 104.431 23.1686 104.507 23.2443C104.583 23.3201 104.782 23.3902 105.104 23.4545L106.831 23.7727C107.695 23.9318 108.323 24.2216 108.717 24.642C109.115 25.0587 109.259 25.6098 109.149 26.2955C109.047 26.8902 108.786 27.4015 108.365 27.8295C107.945 28.2576 107.411 28.5871 106.763 28.8182C106.119 29.0455 105.407 29.1591 104.626 29.1591C103.251 29.1591 102.221 28.8845 101.536 28.3352C100.854 27.786 100.543 27.0682 100.604 26.1818H103.649C103.657 26.4659 103.751 26.6799 103.933 26.8239C104.119 26.964 104.365 27.0379 104.672 27.0455C105.005 27.0568 105.297 26.9905 105.547 26.8466C105.797 26.6989 105.937 26.5152 105.967 26.2955C105.979 26.1705 105.924 26.0758 105.803 26.0114C105.685 25.947 105.46 25.8826 105.126 25.8182L103.626 25.5455C102.763 25.3902 102.134 25.0795 101.74 24.6136C101.346 24.1439 101.21 23.5455 101.331 22.8182C101.429 22.2386 101.664 21.7519 102.036 21.358C102.411 20.964 102.903 20.6667 103.513 20.4659C104.123 20.2614 104.827 20.1591 105.626 20.1591C106.933 20.1591 107.922 20.4223 108.592 20.9489C109.267 21.4716 109.543 22.1932 109.422 23.1136Z" fill="black"/>
<path d="M0 14.9333L12 32H34L38 21.3333L34 0H24L2 6.4L0 14.9333Z" fill="black"/>
<path d="M29.9995 16C29.9995 16 24.9995 20 19.9995 20C14.9995 20 9.99951 16 9.99951 16C9.99951 16 14.9995 12 19.9995 12C24.9995 12 29.9995 16 29.9995 16Z" fill="white"/>
<circle cx="19.9995" cy="16" r="3" fill="black"/>
</svg>

<svg xmlns="http://www.w3.org/2000/svg" width="112" height="33" fill="none" viewBox="0 0 112 33"><path fill="#000" d="M48.75 3.364h3.114l-1.319 7.977a4.228 4.228 0 0 1-.897 2 4.818 4.818 0 0 1-1.779 1.34c-.716.319-1.505.478-2.369.478-.742 0-1.401-.129-1.977-.386a2.572 2.572 0 0 1-1.273-1.227c-.273-.561-.333-1.288-.182-2.182h3.16c-.039.295-.031.543.022.744a.775.775 0 0 0 .295.449c.144.098.334.147.569.147.235 0 .44-.05.619-.153.178-.106.326-.26.443-.46.118-.205.203-.455.256-.75l1.318-7.977Zm5.133 11.772c-.553 0-1.028-.09-1.426-.272a1.76 1.76 0 0 1-.863-.841c-.178-.38-.218-.856-.12-1.432.08-.477.23-.885.45-1.222.219-.337.492-.613.818-.83a3.85 3.85 0 0 1 1.096-.493c.41-.118.841-.194 1.295-.228.493-.038.893-.085 1.2-.142.306-.057.535-.134.687-.233a.585.585 0 0 0 .273-.398v-.022c.034-.228-.027-.402-.182-.523-.152-.121-.364-.182-.637-.182a1.47 1.47 0 0 0-.767.193c-.212.13-.358.33-.437.603h-2.887a3.46 3.46 0 0 1 .745-1.466c.379-.451.88-.81 1.505-1.08.63-.273 1.38-.409 2.25-.409.622 0 1.167.074 1.637.222.47.144.858.346 1.165.608.31.257.528.56.653.909.129.344.16.72.091 1.125l-1 5.977h-2.932l.205-1.227h-.069a3.18 3.18 0 0 1-.767.79c-.28.2-.587.346-.92.437-.33.09-.684.136-1.063.136Zm1.364-1.977a1.73 1.73 0 0 0 1.279-.574c.162-.185.267-.41.312-.676l.114-.727a2.945 2.945 0 0 1-.279.096c-.098.027-.202.053-.312.08-.106.026-.22.051-.341.074l-.364.068c-.25.038-.46.1-.63.188-.17.083-.304.187-.398.312a.861.861 0 0 0-.176.41c-.034.238.02.423.165.556.147.129.357.193.63.193ZM60.927 15l1.455-8.727h3.046l-.273 1.659h.09c.262-.614.59-1.063.984-1.347a2.158 2.158 0 0 1 1.681-.392c.13.02.256.046.381.08l-.454 2.682a2.176 2.176 0 0 0-.552-.12 4.945 4.945 0 0 0-.585-.04c-.303 0-.587.07-.852.21-.261.137-.485.33-.67.58a2.06 2.06 0 0 0-.364.87L64.064 15h-3.136Zm14.307.16c-.947 0-1.727-.188-2.34-.563a3.036 3.036 0 0 1-1.285-1.58c-.246-.678-.295-1.464-.147-2.358.147-.894.456-1.678.926-2.352a4.831 4.831 0 0 1 1.812-1.58c.739-.379 1.584-.568 2.534-.568.944 0 1.72.19 2.33.568a3 3 0 0 1 1.29 1.58c.25.674.3 1.458.153 2.352-.148.894-.458 1.68-.932 2.358a4.946 4.946 0 0 1-1.818 1.58c-.735.375-1.576.562-2.523.562Zm.387-2.32c.273 0 .52-.088.744-.266.227-.178.42-.432.58-.761.163-.33.282-.722.358-1.177.075-.458.087-.85.034-1.176-.053-.33-.163-.583-.33-.761a.86.86 0 0 0-.659-.267c-.273 0-.523.089-.75.267-.227.178-.42.432-.58.761-.159.326-.276.718-.352 1.176-.076.455-.089.847-.04 1.177.053.329.163.583.33.76.17.179.392.268.665.268Zm12.125-6.567-.387 2.272h-5.84l.386-2.272h5.84ZM81.553 15l1.5-8.977c.117-.72.342-1.317.676-1.79.337-.474.76-.828 1.267-1.063a4.065 4.065 0 0 1 1.716-.352c.401 0 .786.03 1.153.091.368.06.635.114.801.16l-.818 2.25a2.306 2.306 0 0 0-.38-.08 2.533 2.533 0 0 0-.393-.034c-.291 0-.5.062-.625.187a.935.935 0 0 0-.238.494L84.689 15h-3.136Zm-16.888 5.273-.387 2.273h-5.75l.387-2.273h5.75Zm-4.296-2.091h3.137l-1.33 8.011a.675.675 0 0 0 .011.307c.027.08.08.14.16.182a.804.804 0 0 0 .33.057c.09 0 .202-.012.334-.035.133-.026.233-.045.301-.056l.091 2.204c-.159.046-.373.097-.642.154-.265.06-.574.1-.926.119-.735.034-1.333-.044-1.795-.233-.459-.19-.777-.485-.955-.886-.174-.406-.204-.911-.09-1.517l1.374-8.307Zm8.286 5.909L67.837 29H64.7l1.932-11.636h3.023l-.75 4.568h.09c.285-.557.683-.99 1.194-1.301a3.252 3.252 0 0 1 1.739-.472c.613 0 1.125.14 1.534.42.409.28.698.667.869 1.16.17.492.203 1.056.097 1.693L73.496 29h-3.137l.819-4.91c.068-.43.013-.77-.165-1.016-.175-.246-.46-.37-.858-.37-.258 0-.493.057-.705.171-.208.11-.382.269-.522.477-.137.205-.228.451-.273.739ZM75.02 29l1.455-8.727h3.136L78.158 29H75.02Zm3.16-9.636c-.425 0-.768-.14-1.029-.42a1.131 1.131 0 0 1-.29-1.012c.068-.398.277-.735.625-1.011.349-.28.735-.421 1.16-.421.427 0 .768.14 1.022.42.254.277.349.614.284 1.012-.06.39-.265.727-.614 1.011a1.79 1.79 0 0 1-1.159.42Zm5.552 4.727L82.915 29h-3.137l1.455-8.727h2.977l-.272 1.659h.09c.277-.557.68-.99 1.21-1.301a3.42 3.42 0 0 1 1.768-.472c.617 0 1.13.14 1.54.42.408.28.698.667.869 1.16.17.492.2 1.056.09 1.693L88.575 29h-3.136l.818-4.91c.072-.43.019-.77-.16-1.016-.174-.246-.462-.37-.863-.37-.254 0-.487.057-.699.171-.208.11-.383.269-.523.477-.136.205-.229.451-.278.739Zm10.025 8.364c-.878 0-1.61-.125-2.193-.375-.58-.247-1.007-.588-1.284-1.023-.273-.432-.386-.928-.34-1.489h3.022c.008.19.063.341.165.455a.858.858 0 0 0 .426.244c.182.05.394.074.636.074.41 0 .764-.1 1.063-.301.3-.197.483-.551.551-1.063l.25-1.477h-.09c-.16.296-.374.547-.643.756a3.011 3.011 0 0 1-.926.471c-.349.106-.72.16-1.114.16-.621 0-1.168-.145-1.642-.433-.47-.287-.81-.744-1.022-1.369-.209-.625-.23-1.441-.063-2.449.174-1.053.481-1.909.92-2.568.44-.659.945-1.142 1.517-1.449.572-.306 1.146-.46 1.722-.46.432 0 .797.076 1.097.227.299.148.537.347.716.597.178.246.3.517.369.813h.068l.25-1.523h3.136l-1.454 8.704c-.114.743-.403 1.372-.87 1.887-.462.519-1.06.912-1.795 1.181-.73.273-1.555.41-2.472.41Zm1.046-5.796c.288 0 .55-.08.784-.238.235-.163.434-.395.597-.694.162-.303.278-.666.346-1.09.068-.433.072-.802.012-1.109-.061-.31-.18-.547-.358-.71-.178-.167-.411-.25-.7-.25-.287 0-.547.083-.778.25a1.91 1.91 0 0 0-.585.71c-.159.307-.273.677-.34 1.108-.069.432-.075.8-.018 1.103.057.299.173.528.347.687.174.155.405.233.693.233Zm14.618-3.545h-2.818a.745.745 0 0 0-.097-.466.768.768 0 0 0-.335-.296 1.075 1.075 0 0 0-.477-.102c-.311 0-.593.07-.847.21-.254.137-.396.316-.426.54-.019.087.009.169.085.244.076.076.275.146.597.21l1.727.319c.864.159 1.492.449 1.886.869.398.417.542.968.432 1.654a2.816 2.816 0 0 1-.784 1.534c-.42.428-.954.757-1.602.988-.644.227-1.356.341-2.137.341-1.375 0-2.405-.274-3.09-.824-.682-.549-.993-1.267-.932-2.153h3.045c.008.284.102.498.284.642.186.14.432.214.739.221a1.61 1.61 0 0 0 .875-.198c.25-.148.39-.332.42-.552.012-.125-.043-.22-.164-.284-.118-.064-.343-.128-.677-.193l-1.5-.273c-.863-.155-1.492-.466-1.886-.931-.394-.47-.53-1.069-.409-1.796.098-.58.333-1.066.705-1.46.375-.394.867-.691 1.477-.892.61-.205 1.314-.307 2.113-.307 1.307 0 2.296.263 2.966.79.675.523.951 1.244.83 2.165ZM0 14.933 12 32h22l4-10.667L34 0H24L2 6.4l-2 8.533Z"/><path fill="#fff" d="M30 16s-5 4-10 4-10-4-10-4 5-4 10-4 10 4 10 4Z"/><circle cx="20" cy="16" r="3" fill="#000"/></svg>
